!!!COM: Music21
!!!OTL: waltz_Eileen-Aroon
!!!OMV: waltz_Eileen-Aroon
**kern
*clefG2
*k[f#c#]
*D:
*M3/4
=1
8ddL
8bJ
=
4a
4b
8ddL
8bJ
=
4dd
4ee
4ff#
=
4f#
4a
8eeL
8ddJ
=
2b
8ddL
8bJ
=
4a
4b
8ddL
8bJ
=
4dd
4ee
4ff#
=
4f#
4a
8bL
8ddJ
=
2dd
4ryy
=||
8ddL
8ff#J
2ryy
!!linebreak:original
=
8gg'L
8gg'J
4ff#
8ff#L
8eeJ
=
8ff#'L
8aa'J
4aa
8ff#L
8eeJ
=
8dd'L
8dd'J
4ee
8ddL
8bJ
=
2a
4ff#
=
4aa
8ff#L
8eeJ
8ddL
8bJ
=
8ddL
8eeJ
2ff#
=
4f#
4a
8bL
8ddJ
=
2dd
4ryy
=||
*-
